X: 42739
T: White Crow
R: jig
M: 6/8
K: Dmajor
A|BEE FEE|BEE E2A|BEE FEE|AFd dBA|
BEE FEE|BEE EFE|DEF AAB|AFD EzA|
BEE FEE|BEE EFA|BEE FEE|AFd dBA|
BEE FEE|BEE EFE|DEF A2B|AFD E2A|
Bee ddB|AFE D2A|Bee dde|fed fed|
Bee fed|BAF DFE|DEF ABA|FED EzA|
efe ddB|AFE DzA|efe dde|fed fed|
Bee fed|BAF D2E|DEF ABB|AFE D2|

